images/DG.svg

<svg height="250" viewBox="0 0 250 250" width="250" xmlns="http://www.w3.org/2000/svg"><path d="m235.007812 122.558594c0 60.75-49.25 109.996094-110 109.996094s-109.996093-49.246094-109.996093-109.996094 49.246093-110 109.996093-110 110 49.25 110 110zm0 0" fill="#2196f3"/><g fill="#fff"><path d="m132.910156 64.894531h-46.125c-3.417968.015625-6.652344 1.554688-8.820312 4.199219-.238282.28125-.460938.574219-.671875.878906-2.308594 3.425782-2.609375 7.820313-.789063 11.527344 1.824219 3.707031 5.488282 6.152344 9.609375 6.414062l.125.140626h46.460938c19.03125.058593 34.445312 15.472656 34.503906 34.503906-.097656 19-15.5 34.371094-34.503906 34.429687h-29.582031c-2.613282-.027343-4.730469-2.128906-4.777344-4.746093v4.746093-22.929687h35.152344c4.226562.164062 8.203124-1.996094 10.367187-5.628906 2.160156-3.636719 2.160156-8.164063 0-11.796876-2.164063-3.632812-6.140625-5.792968-10.367187-5.628906h-47.058594c-6.1875.007813-11.199219 5.015625-11.21875 11.199219v46.796875c.019531 6.1875 5.03125 11.199219 11.21875 11.21875h46.476562c31.78125-.136719 57.496094-25.882812 57.59375-57.660156-.097656-31.78125-25.8125-57.527344-57.59375-57.664063zm0 0"/><path d="m98.320312 138.839844c.03125-2.644532 2.175782-4.773438 4.816407-4.78125h-4.816407zm0 0"/></g></svg>

<svg xmlns="http://www.w3.org/2000/svg" xmlns:xlink="http://www.w3.org/1999/xlink" width="250px" height="250px" viewBox="0 0 250 250" version="1.1">
<g id="surface1">
<path style=" stroke:none;fill-rule:nonzero;fill:rgb(12.941177%,58.823532%,95.294118%);fill-opacity:1;" d="M 235.007812 122.558594 C 235.007812 183.308594 185.757812 232.554688 125.007812 232.554688 C 64.257812 232.554688 15.011719 183.308594 15.011719 122.558594 C 15.011719 61.808594 64.257812 12.558594 125.007812 12.558594 C 185.757812 12.558594 235.007812 61.808594 235.007812 122.558594 Z M 235.007812 122.558594 "/>
<path style=" stroke:none;fill-rule:nonzero;fill:rgb(100%,100%,100%);fill-opacity:1;" d="M 132.910156 64.894531 L 86.785156 64.894531 C 83.367188 64.910156 80.132812 66.449219 77.964844 69.09375 C 77.726562 69.375 77.503906 69.667969 77.292969 69.972656 C 74.984375 73.398438 74.683594 77.792969 76.503906 81.5 C 78.328125 85.207031 81.992188 87.652344 86.113281 87.914062 L 86.238281 88.054688 L 132.699219 88.054688 C 151.730469 88.113281 167.144531 103.527344 167.203125 122.558594 C 167.105469 141.558594 151.703125 156.929688 132.699219 156.988281 L 103.117188 156.988281 C 100.503906 156.960938 98.386719 154.859375 98.339844 152.242188 L 98.339844 156.988281 L 98.339844 134.058594 L 133.492188 134.058594 C 137.71875 134.222656 141.695312 132.0625 143.859375 128.429688 C 146.019531 124.792969 146.019531 120.265625 143.859375 116.632812 C 141.695312 113 137.71875 110.839844 133.492188 111.003906 L 86.433594 111.003906 C 80.246094 111.011719 75.234375 116.019531 75.214844 122.203125 L 75.214844 169 C 75.234375 175.1875 80.246094 180.199219 86.433594 180.21875 L 132.910156 180.21875 C 164.691406 180.082031 190.40625 154.335938 190.503906 122.558594 C 190.40625 90.777344 164.691406 65.03125 132.910156 64.894531 Z M 132.910156 64.894531 "/>
<path style=" stroke:none;fill-rule:nonzero;fill:rgb(100%,100%,100%);fill-opacity:1;" d="M 98.320312 138.839844 C 98.351562 136.195312 100.496094 134.066406 103.136719 134.058594 L 98.320312 134.058594 Z M 98.320312 138.839844 "/>
</g>
</svg>
